icon/ir/heart.svg

<svg stroke-width="1.5" viewBox="0 0 24 24" fill="none" xmlns="http://www.w3.org/2000/svg" height="1em" width="1em">
  <path d="M22 8.86222C22 10.4087 21.4062 11.8941 20.3458 12.9929C17.9049 15.523 15.5374 18.1613 13.0053 20.5997C12.4249 21.1505 11.5042 21.1304 10.9488 20.5547L3.65376 12.9929C1.44875 10.7072 1.44875 7.01723 3.65376 4.73157C5.88044 2.42345 9.50794 2.42345 11.7346 4.73157L11.9998 5.00642L12.2648 4.73173C13.3324 3.6245 14.7864 3 16.3053 3C17.8242 3 19.2781 3.62444 20.3458 4.73157C21.4063 5.83045 22 7.31577 22 8.86222Z" stroke="currentColor" stroke-linejoin="round"/>
</svg>

<svg width="24" height="24" stroke-width="1.5" fill="none" xmlns="http://www.w3.org/2000/svg"><path d="M22 8.862a5.95 5.95 0 0 1-1.654 4.13c-2.441 2.531-4.809 5.17-7.34 7.608-.581.55-1.502.53-2.057-.045l-7.295-7.562c-2.205-2.286-2.205-5.976 0-8.261a5.58 5.58 0 0 1 8.08 0l.266.274.265-.274A5.612 5.612 0 0 1 16.305 3c1.52 0 2.973.624 4.04 1.732A5.95 5.95 0 0 1 22 8.862Z" stroke="currentColor" stroke-linejoin="round"/></svg>
